pix_core/t/stealth.svg

<svg height="12" preserveAspectRatio="xMinYMid meet" viewBox="0 0 12 12" width="12" xmlns="http://www.w3.org/2000/svg"><path d="m.83007812 0 1.64648438 2.8515625c-.00413.00253-.00759.00528-.011719.00781-.6841481.4199472-1.2524659.9183683-1.675781 1.4355494l-.001953-.00391c-.02008221.024179-.03341328.0480698-.0527345.0722693-.11612182.1468789-.22488582.2911709-.31445312.4375-.25846586.4222646-.41992188.8375124-.41992188 1.1992188 0 .5777635.37498263 1.2840809.9921875 1.953125.2164499-1.2344386 1.2415186-2.2225901 2.0605469-3.0019531.0006855-.0005145.00127-.00144.00195-.00195.07644-.057316.1660785-.1133854.25-.1699219.065932-.044307.1427638-.083856.2128906-.1269531l.3300812.5742156c-.0867071.243648-.1484374.5001007-.1484374.7734375 0 .9.7704406 1.6996094 1.5704406 2.0996094-.3124928-.0781232-.8730122-.1923561-1.1505188-.3203125l1.3828125 2.3945311c.1652317.013772.3302702.025391.4980469.025391.2341941 0 .4643909-.01653.6933594-.04297l1.0644531 1.843751h2.2910155l-1.3886718-2.4042969c1.2709014-.5645611 2.3015898-1.4483651 2.8671878-2.3085937.001.00257.0029.00524.0039.00781.02334-.035832.03292-.069737.05469-.1054688.09793-.1587294.17694-.3148157.240234-.46875.0293-.07114.06244-.1415534.08398-.2109375.01215-.03944.02367-.078407.0332-.1171875.033685-.1352039.056652-.2679971.056652-.3925756 0-1.6-2.8-4.1992187-6-4.1992188-.2617853 0-.5183202.02382-.7734375.056641-.066288.0086-.1315397.018649-.1972656.029297-.2473116.039769-.4926651.087857-.7304688.1542968l-1.1777343-2.041016zm6.16992188 3.9003906c.038317.011974.073478.028259.1113281.041016 1.5426476.5198925 2.6934615 1.6681726 2.8886719 2.0585934-.1709067.4272667-1.0750722 1.3633736-2.3320312 1.8769531l-.1015626-.1757812c.4606359-.434317.7343752-1.0398102.734375-1.7011719 0-.8812329-.4848456-1.6605096-1.2558593-2.0683594-.0164461-.0087014-.0282123-.0228952-.0449219-.03125z" fill="#fff"/></svg>

<?xml version="1.0" encoding="UTF-8" standalone="no"?>
<svg
   xmlns="http://www.w3.org/2000/svg"
   id="svg4"
   version="1.1"
   overflow="visible"
   preserveAspectRatio="xMinYMid meet"
   viewBox="0 0 12 12"
   height="12"
   width="12">
  <defs
     id="defs8" />
  <path
     id="path817"
     d="M 0.83007812,0 2.4765625,2.8515625 c -0.00413,0.00253 -0.00759,0.00528 -0.011719,0.00781 -0.6841481,0.4199472 -1.2524659,0.9183683 -1.675781,1.4355494 l -0.001953,-0.00391 C 0.76702729,4.3151909 0.75369622,4.3390817 0.734375,4.3632812 0.61825318,4.5101601 0.50948918,4.6544521 0.41992188,4.8007812 0.16145602,5.2230458 0,5.6382936 0,6 0,6.5777635 0.37498263,7.2840809 0.9921875,7.953125 1.2086374,6.7186864 2.2337061,5.7305349 3.0527344,4.9511719 c 6.855e-4,-5.145e-4 0.00127,-0.00144 0.00195,-0.00195 0.07644,-0.057316 0.1660785,-0.1133854 0.25,-0.1699219 C 3.3706164,4.734993 3.4474482,4.695444 3.517575,4.6523469 L 3.8476562,5.2265625 C 3.7609491,5.4702105 3.6992188,5.7266632 3.6992188,6 c 0,0.9 0.7704406,1.6996094 1.5704406,2.0996094 C 4.9571666,8.0214862 4.3966472,7.9072533 4.1191406,7.7792969 L 5.5019531,10.173828 C 5.6671848,10.1876 5.8322233,10.199219 6,10.199219 c 0.2341941,0 0.4643909,-0.01653 0.6933594,-0.04297 L 7.7578125,12 H 10.048828 L 8.6601562,9.5957031 C 9.9310576,9.031142 10.961746,8.147338 11.527344,7.2871094 c 0.001,0.00257 0.0029,0.00524 0.0039,0.00781 0.02334,-0.035832 0.03292,-0.069737 0.05469,-0.1054688 0.09793,-0.1587294 0.17694,-0.3148157 0.240234,-0.46875 0.0293,-0.07114 0.06244,-0.1415534 0.08398,-0.2109375 0.01215,-0.03944 0.02367,-0.078407 0.0332,-0.1171875 C 11.977033,6.2573717 12,6.1245785 12,6 12,4.4 9.2,1.8007813 6,1.8007812 c -0.2617853,0 -0.5183202,0.02382 -0.7734375,0.056641 -0.066288,0.0086 -0.1315397,0.018649 -0.1972656,0.029297 C 4.7819853,1.9264882 4.5366318,1.9745762 4.2988281,2.041016 L 3.1210938,0 Z M 7,3.9003906 c 0.038317,0.011974 0.073478,0.028259 0.1113281,0.041016 C 8.6539757,4.4612991 9.8047896,5.6095792 10,6 9.8290933,6.4272667 8.9249278,7.3633736 7.6679688,7.8769531 L 7.5664062,7.7011719 C 8.0270421,7.2668549 8.3007814,6.6613617 8.3007812,6 8.3007812,5.1187671 7.8159356,4.3394904 7.0449219,3.9316406 7.0284758,3.9229392 7.0167096,3.9087454 7,3.9003906 Z"
     fill="#fff" />
</svg>
